X:1
T:Come, You Thankful People, Come
T:Text: Henry Alford, 1844, alt. Tune: George J. Elvey, 1858
T:77 77 D ST. GEORGE'S WINDSOR www.hymnary.org/text/come_ye_thankful_people_come
T:Come, You Thankful People, Come
T:This hymn is in the public domain. You may freely use this score for personal and congregational worship. If you reproduce the score, please credit Hymnary.org as the source. 
T:This hymn is in the public domain. You may freely use this score for personal and congregational worship. If you reproduce the score, please credit Hymnary.org as the source. 
T:This hymn is in the public domain. You may freely use this score for personal and congregational worship. If you reproduce the score, please credit Hymnary.org as the source. 
Z:This hymn is in the public domain. You may freely use this score for personal and congregational worship. If you reproduce the score, please credit Hymnary.org as the source.
%%score ( 1 2 ) ( 3 4 )
L:1/8
M:4/4
K:F
V:1 treble nm="SOPRANO ALTO" snm="S. A."
V:2 treble 
V:3 bass nm="TENOR BASS" snm="T. B."
V:4 bass 
V:1
"^1""^2""^3""^4" A3 A c2 A2 | F2 G2 A4 | A3 A c2 A2 | F2 G2 A4 | A3 A B2 B2 | G3 G A4 | %6
w: Come, you thank- ful|peo- ple, come,|raise the song of|har- vest home;|all is safe- ly|gath- ered in|
w: All the world is|God's own field,|fruit un- to his|praise to yield;|wheat and weeds to-|geth- er sown,|
w: For the Lord our|God shall come|and shall take his|har- vest home;|he him- self in|that great day|
w: E- ven so, Lord,|quick- ly come|to your fi- nal|har- vest home;|gath- er all your|peo- ple in,|
 A2 =B2 c2 F2 | E2 D2 C4 |1 E3 E G2 E2 | F2 G2 A4 | A3 A c2 A2 ||"^Page 2" B2 c2 d4 | %12
w: ere the win- ter|storms be- gin;|God, our Mak- er,|does pro- vide|for our needs to|be sup- plied;|
w: un- to joy or|sor- row grown:|first the blade and|then the ear,|then the full corn|shall ap- pear;|
w: all of- fense shall|take a- way,|give his an- gels|charge at last|in the fire the|weeds to cast,|
w: free from sor- row,|free from sin—|there, for- ev- er|pu- ri- fied,|in your pres- ence|to a- bide;|
 d3 d B2"^Come, You Thankful People, Come" G2 | c3 c | A4 | B2 d2 c2 F2 | A2 G2 F4 |] %17
w: come, with all his|peo- ple|come,|raise the song of|har- vest home.|
w: Lord of har- vest,|grant that|we|whole- some grain and|pure may be.|
w: but the fruit- ful|ears to|store|in his gar- ner|ev- er- more.|
w: come, with all your|an- gels|come,|raise the glo- rious|har- vest home.|
V:2
 C3 C C2 C2 | D2 E2 F4 | C3 C C2 C2 | D2 D2 ^C4 | D3 D D2 D2 | C2 C2 C4 | C2 D2 C2 D2 | %7
 C2 =B,2 C4 |1 C3 C C2 C2 | C2 B,2 A,4 | C3 C F2 F2 || F2 _E2 D4 | D2 ^F2 G2 D2 | C2 E2 | F4 | %15
 F2 F2 F2 F2 | F2 E2 F4 |] %17
V:3
 F,3 F, G,2 A,2 | A,2 C2 C4 | F,3 F, G,2 F,2 | A,2 B,2 E,4 | A,3 A, G,2 G,2 | E,2 E,2 F,4 | %6
 F,2 F,2 G,2 A,2 | G,3 F, E,4 |1 G,3 G, E,2 G,2 | F,3 E, F,4 | F,3 F, A,2 C2 || B,3 A, B,4 | %12
 A,2 D2 D2 B,2 | G,2 C2 | C4 | B,2 B,2 C2 A,2 | C3 B, A,4 |] %17
V:4
 x3 F, E,2 F,2 | D,2 C,2 F,4 | x3 F, E,2 F,2 | D,2 B,,2 A,,4 | F,3 F, G,,2 G,,2 | C,2 C,2 F,,4 | %6
 F,2 D,2 E,2 F,2 | G,2 G,,2 C,4 |1 C,3 C, C,2 B,,2 | A,,2 G,,2 F,,4 | x3 F, F,2 _E,2 || %11
 D,2 C,2 B,,4 | ^F,2 D,2 G,2 G,2 | E,2 C,2 | F,4 | D,2 B,,2 A,,2 D,2 | C,2 C,2 F,4 |] %17

